build/category/ReceiptInfoOutline.svg

<svg xmlns="http://www.w3.org/2000/svg" fill="none" viewBox="0 0 24 24" focusable="false"><path d="M0 0H24V24H0z"/><path fill="#74767B" fill-rule="evenodd" d="M10.2217 18.4626C9.78379 18.1311 9.18485 18.1106 8.72528 18.4112L6.81189 19.6631C6.75611 19.6996 6.69089 19.719 6.62423 19.719C6.43491 19.719 6.28145 19.5655 6.28145 19.3762L6.28145 6C6.28145 5.06112 7.04256 4.3 7.98145 4.3L15.9814 4.3C16.9203 4.3 17.6814 5.06112 17.6814 6L17.6814 9.99152C17.6814 10.3505 17.9725 10.6415 18.3314 10.6415C18.6904 10.6415 18.9814 10.3505 18.9814 9.99152L18.9814 6C18.9814 4.34315 17.6383 3 15.9814 3L7.98145 3C6.32459 3 4.98145 4.34315 4.98145 6L4.98145 19.3762C4.98145 20.2835 5.71694 21.019 6.62423 21.019C6.94371 21.019 7.25627 20.9258 7.52362 20.7509L9.04879 19.7531C9.28162 19.6008 9.58868 19.6139 9.81052 19.7818C10.2386 20.1059 10.863 19.8083 10.863 19.2713C10.863 19.0677 10.7677 18.8759 10.6054 18.7531L10.2217 18.4626ZM8.01831 7.64292C8.01831 7.28394 8.30933 6.99292 8.66831 6.99292L15.3683 6.99292C15.7273 6.99292 16.0183 7.28394 16.0183 7.64292C16.0183 8.00191 15.7273 8.29292 15.3683 8.29292L8.66831 8.29292C8.30933 8.29292 8.01831 8.00191 8.01831 7.64292ZM8.66831 9.99219C8.30933 9.99219 8.01831 10.2832 8.01831 10.6422C8.01831 11.0012 8.30933 11.2922 8.66831 11.2922L11.8752 11.2922C12.2342 11.2922 12.5252 11.0012 12.5252 10.6422C12.5252 10.2832 12.2342 9.99219 11.8752 9.99219L8.66831 9.99219ZM13.4631 13.4818C15.4116 11.5332 18.5709 11.5332 20.5195 13.4818C22.4681 15.4304 22.4681 18.5897 20.5195 20.5383C18.5709 22.4869 15.4116 22.4869 13.4631 20.5383C11.5145 18.5897 11.5145 15.4304 13.4631 13.4818ZM19.6003 14.401C18.1594 12.9601 15.8232 12.9601 14.3823 14.401C12.9414 15.8419 12.9414 18.1781 14.3823 19.619C15.8232 21.0599 18.1594 21.0599 19.6003 19.619C21.0412 18.1781 21.0412 15.8419 19.6003 14.401ZM17.6413 15.2379C17.6413 15.5969 17.3503 15.8879 16.9913 15.8879C16.6323 15.8879 16.3413 15.5969 16.3413 15.2379C16.3413 14.8789 16.6323 14.5879 16.9913 14.5879C17.3503 14.5879 17.6413 14.8789 17.6413 15.2379ZM16.9912 17.1875C17.3502 17.1875 17.6412 17.4785 17.6412 17.8375L17.6412 18.7698C17.6412 19.1288 17.3502 19.4198 16.9912 19.4198C16.6322 19.4198 16.3412 19.1288 16.3412 18.7698L16.3412 17.8375C16.3412 17.4785 16.6322 17.1875 16.9912 17.1875Z"/></svg>

<svg xmlns="http://www.w3.org/2000/svg" fill="none" viewBox="0 0 24 24" focusable="false"><path fill="#74767B" fill-rule="evenodd" d="M10.22 18.46a1.31 1.31 0 0 0-1.5-.05l-1.91 1.25c-.06.03-.12.05-.19.05-.19 0-.34-.15-.34-.34V6c0-.94.76-1.7 1.7-1.7h8c.94 0 1.7.76 1.7 1.7v3.99c0 .36.29.65.65.65s.65-.29.65-.65V6c0-1.66-1.35-3-3-3h-8c-1.66 0-3 1.34-3 3v13.37c0 .91.73 1.64 1.64 1.64.32 0 .63-.09.9-.26l1.52-1c.24-.15.54-.14.77.03.42.32 1.05.02 1.05-.51 0-.21-.1-.4-.26-.52zM8.01 7.64c0-.36.29-.65.65-.65h6.7c.36 0 .65.29.65.65s-.29.65-.65.65h-6.7c-.36 0-.65-.29-.65-.65m.65 2.35c-.36 0-.65.29-.65.65s.29.65.65.65h3.21c.36 0 .65-.29.65-.65s-.29-.65-.65-.65zm4.8 3.49a4.98 4.98 0 0 1 7.05 0 4.98 4.98 0 0 1 0 7.05 4.98 4.98 0 0 1-7.05 0 4.98 4.98 0 0 1 0-7.05m6.14.92a3.694 3.694 0 0 0-5.22 0 3.68 3.68 0 0 0 0 5.21 3.694 3.694 0 0 0 5.22 0 3.68 3.68 0 0 0 0-5.21m-1.96.83c0 .36-.29.65-.65.65s-.65-.29-.65-.65.29-.65.65-.65.65.29.65.65m-.65 1.95c.36 0 .65.29.65.65v.93c0 .36-.29.65-.65.65s-.65-.29-.65-.65v-.93c0-.36.29-.65.65-.65"/></svg>
